src/22/actions/view-calendar-tasks.svg

<svg xmlns="http://www.w3.org/2000/svg" viewBox="0 0 22 22"><path d="M4 3v2H3v1h1v1H3v1h1v6H3v1h1v1H3v1h1v2h15V3H4zm3 1h11v14H7V4zm1 2v2h2V6H8zm3 0v1h6V6h-6zm-3 4v2h2v-2H8zm3 0v1h6v-1h-6zm-3 4v2h2v-2H8zm3 0v1h6v-1h-6z" fill="currentColor" color="#5d656b"/></svg>

<svg xmlns="http://www.w3.org/2000/svg" viewBox="0 0 22 22">
  <defs id="defs3051">
    <style type="text/css" id="current-color-scheme">
      .ColorScheme-Text {
        color:#5d656b;
      }
      </style>
  </defs>
 <path 
    style="fill:currentColor;fill-opacity:1;stroke:none" 
    d="M 4 3 L 4 5 L 3 5 L 3 6 L 4 6 L 4 7 L 3 7 L 3 8 L 4 8 L 4 14 L 3 14 L 3 15 L 4 15 L 4 16 L 3 16 L 3 17 L 4 17 L 4 19 L 7 19 L 19 19 L 19 18 L 19 3 L 7 3 L 4 3 z M 7 4 L 9 4 L 10 4 L 18 4 L 18 6 L 18 7 L 18 9 L 18 10 L 18 12 L 18 13 L 18 15 L 18 16 L 18 18 L 10 18 L 9 18 L 7 18 L 7 16 L 7 15 L 7 13 L 7 12 L 7 10 L 7 9 L 7 7 L 7 6 L 7 4 z M 8 6 L 8 8 L 10 8 L 10 6 L 8 6 z M 11 6 L 11 7 L 17 7 L 17 6 L 11 6 z M 8 10 L 8 12 L 10 12 L 10 10 L 8 10 z M 11 10 L 11 11 L 17 11 L 17 10 L 11 10 z M 8 14 L 8 16 L 10 16 L 10 14 L 8 14 z M 11 14 L 11 15 L 17 15 L 17 14 L 11 14 z "
	class="ColorScheme-Text"
    />  
</svg>
